X:133
T: Die Schlangenkoechin
N: Q2079X
O: Nord - Amerika, USA, Neuengland
N: Amerikanische Fassung der Ballade.
N: Zweite und sechste Zeile = Refrain.
R: Ballade, Mord; Reigen - Tanz, antiphonal
M: 3/4
L: 1/8
K: G
GA | B2B2B2 | B2A2
AB | c2c2c2 | c2B2
GB | d2e2d2 | d2B2
G2 | A2B2A2 | G4
GA | B2B2B2 | B2A2
AB | c2c2c2 | c2B2
GB | d2e2d2 | d2B2
G2 | A3GA2 | G4

@@@ Tune index: 1188
